X: 181
T: Col: Mackays Reel
%O: 1795
%R: reel
Z: 2018 John Chambers <jc:trillian.mit.edu>
B: Wm. Campbell "10th Book of New and Favorite Country Dances, Strathspey Reels" 1795 p.18
F: https://archive.org/details/campbellstenthbo00camp
M: C|
L: 1/8
K: C
% - - - - - - - - - - - - - - - - - - - - - - - - -
% Voice 1 arranged for small-scale proofreading
V: 1 staves=2
A |\
cC2E G2G_B | (AFEC) DF_B,D |\
C/D/E/F/ GE G2cG | Aagf ecc :: e |\
(c/d/e/f/) gc acgc | ecgc (Bdd)e |
c/d/e/f/ gc acgc | ecgc G(cce) |\
(c/d/e/f/) gc acgc | fdec B>cde |\
cGEC FAG_B | Aagf ecc |]
% - - - - - - - - - - - - - - - - - - - - - - - - -
% Voice 1 preserves the original staff layout
V: 2 clef=bass middle=d
z |\
c2c2 c2c2 | c2c2 _B2B2 | c2c2 c2e2 | f2g2 c2c ::
z |\
c2e2 f2e2 | c2e2 g2G2 | c2e2 f2e2 | c2eg c3z | c2e2 f2e2 |
d2c2 g2B2 | c2c2 c2c2 | f2g2 c2c |]
% - - - - - - - - - - - - - - - - - - - - - - - - -
%%begintext align
%% Cast off 2 Cu up again Lead down
%% the middle up again  Allemande
%% swing corners & hands 6 round
%% back again.
%%endtext
% - - - - - - - - - - - - - - - - - - - - - - - - -

%%sep 1 1 500
%%sep 1 1 500

